view/frontend/web/svg/flags/me.svg

<svg width="24" height="24" viewbox="0 0 20 15" viewBox="0 0 20 15" fill="none" xmlns="http://www.w3.org/2000/svg">
<g clip-path="url(#clip0_270_60910)">
<rect width="20" height="15" fill="white"/>
<path fill-rule="evenodd" clip-rule="evenodd" d="M0 0H20V15H0V0Z" fill="#E8AA00"/>
<path fill-rule="evenodd" clip-rule="evenodd" d="M2 2H18V13H2V2Z" fill="#C51918"/>
<mask id="mask0_270_60910" style="mask-type:luminance" maskUnits="userSpaceOnUse" x="2" y="2" width="16" height="11">
<path fill-rule="evenodd" clip-rule="evenodd" d="M2 2H18V13H2V2Z" fill="white"/>
</mask>
<g mask="url(#mask0_270_60910)">
<path fill-rule="evenodd" clip-rule="evenodd" d="M12.6442 9.8446C12.8991 9.8446 13.1058 9.63284 13.1058 9.37162C13.1058 9.11041 12.8991 8.89865 12.6442 8.89865C12.3893 8.89865 12.1827 9.11041 12.1827 9.37162C12.1827 9.63284 12.3893 9.8446 12.6442 9.8446Z" fill="#1E5E91"/>
<path fill-rule="evenodd" clip-rule="evenodd" d="M6.64224 7.7074C5.43147 6.30025 7.16678 3.85826 7.16678 3.85826C7.16678 3.85826 7.42621 5.31673 8.38643 6.29814C8.38643 6.36783 8.29575 6.47065 8.20395 6.57475C8.13984 6.64745 8.07518 6.72077 8.04046 6.78387C7.95604 6.93731 8.24587 7.02478 8.38643 7.02478C8.44952 7.02478 8.48437 7.11627 8.51583 7.19884C8.55447 7.30024 8.58798 7.3882 8.66235 7.27677C8.79729 7.07461 8.52741 6.63042 8.52741 6.63042L8.95464 6.17979L9.09912 5.88849H8.95464V5.58859L8.8534 5.67172C8.8534 5.67172 8.74232 5.40358 8.52741 5.40358C8.3125 5.40358 8.24587 5.28095 8.24587 5.28095H8.52741C8.66839 5.28095 8.50488 5.09414 8.38643 4.99684C8.33333 4.95322 8.25279 4.96826 8.18007 4.98183C8.09056 4.99854 8.01292 5.01304 8.01292 4.91321C8.01292 4.80379 8.09811 4.78929 8.19655 4.77254C8.26088 4.7616 8.33087 4.74969 8.38643 4.70969C8.47832 4.64352 8.60216 4.66387 8.73623 4.68589C8.80724 4.69755 8.88112 4.70969 8.95464 4.70969H9.30274C9.42844 4.70969 9.09912 4.91321 9.09912 4.91321L9.30274 5.09414L9.60554 5.40358L9.45411 5.49345L9.76657 5.79645C9.76657 5.79645 9.66051 5.9689 9.76657 5.9689C9.81029 5.9689 9.83906 6.00473 9.85777 6.04685C9.87649 6.00473 9.90525 5.9689 9.94897 5.9689C10.055 5.9689 9.94897 5.79645 9.94897 5.79645L10.2614 5.49345L10.11 5.40358L10.4128 5.09414L10.6164 4.91321C10.6164 4.91321 10.2871 4.70969 10.4128 4.70969H10.7609C10.8344 4.70969 10.9083 4.69755 10.9793 4.68589C11.1134 4.66387 11.2372 4.64352 11.3291 4.70969C11.3847 4.74969 11.4547 4.7616 11.519 4.77254C11.6174 4.78929 11.7026 4.80379 11.7026 4.91321C11.7026 5.01304 11.625 4.99854 11.5355 4.98183C11.4628 4.96826 11.3822 4.95322 11.3291 4.99684C11.2107 5.09414 11.0472 5.28095 11.1881 5.28095H11.4697C11.4697 5.28095 11.403 5.40358 11.1881 5.40358C10.9732 5.40358 10.8621 5.67172 10.8621 5.67172L10.7609 5.58859V5.88849H10.6164L10.7609 6.17979L11.1881 6.63042C11.1881 6.63042 10.9183 7.07461 11.0532 7.27677C11.1276 7.3882 11.1611 7.30024 11.1997 7.19884C11.2312 7.11627 11.266 7.02478 11.3291 7.02478C11.4697 7.02478 11.7595 6.93731 11.6751 6.78387C11.6404 6.72077 11.5757 6.64745 11.5116 6.57475C11.4198 6.47065 11.3291 6.36783 11.3291 6.29814C12.2893 5.31673 12.5488 3.85826 12.5488 3.85826C12.5488 3.85826 14.2841 6.30025 13.0733 7.7074C11.8625 9.11456 10.9732 8.69024 10.9732 8.69024L11.4697 9.13542L11.3291 9.25705H11.7428L11.5907 9.35875L11.7026 9.40779L11.8212 9.45971C11.8212 9.45971 11.5016 9.69468 11.8212 9.69468C11.8716 9.69468 11.9251 9.69319 11.9801 9.69166C12.0403 9.68999 12.1025 9.68826 12.1646 9.68838C12.1813 9.68841 12.1439 9.59631 12.1068 9.505C12.0703 9.41488 12.034 9.32552 12.0503 9.32622C12.0849 9.32771 12.1527 9.40963 12.2208 9.49183C12.2751 9.55735 12.3295 9.62306 12.3673 9.64836C12.3917 9.66465 12.4868 9.63161 12.575 9.60099C12.6495 9.57511 12.719 9.55096 12.7366 9.55982C12.8109 9.59732 12.7919 9.6732 12.7738 9.74546C12.7691 9.76404 12.7645 9.78238 12.7616 9.79977C12.759 9.81557 12.8541 9.75383 12.9542 9.68889C13.0593 9.6207 13.1699 9.54898 13.1783 9.55982C13.1801 9.56209 13.182 9.5644 13.184 9.5668C13.2197 9.6098 13.2773 9.67907 12.8523 10.0066C12.8523 10.0696 12.8546 10.121 12.8564 10.1627C12.8622 10.2968 12.8637 10.3315 12.7729 10.3315C12.7325 10.3315 12.6759 10.3516 12.6103 10.3748C12.4422 10.4344 12.2152 10.5148 12.0503 10.3315C11.8212 10.0767 11.4697 9.69468 11.4697 9.69468V9.88242L11.0532 9.45971L10.9732 9.69468L10.4128 9.05099L10.2614 9.13542C10.2614 9.13542 10.7773 10.559 11.0532 10.5689C11.1903 10.5738 10.9821 10.7069 10.7063 10.8831C10.4271 11.0616 10.0786 11.2843 9.94897 11.4631C9.91039 11.5164 9.88058 11.4352 9.85777 11.2587C9.83497 11.4352 9.80516 11.5164 9.76657 11.4631C9.63694 11.2843 9.28845 11.0616 9.00924 10.8831C8.73344 10.7069 8.52524 10.5738 8.66235 10.5689C8.93827 10.559 9.45411 9.13542 9.45411 9.13542L9.30274 9.05099L8.74232 9.69468L8.66235 9.45971L8.24587 9.88242V9.69468C8.24587 9.69468 7.89439 10.0767 7.66522 10.3315C7.50035 10.5148 7.27332 10.4344 7.10522 10.3748C7.03966 10.3516 6.98307 10.3315 6.94262 10.3315C6.79844 10.3315 6.75018 10.1298 6.94262 9.88242C7.10468 9.67412 7.44214 9.68351 7.73549 9.69166C7.79049 9.69319 7.84394 9.69468 7.89439 9.69468C8.21392 9.69468 7.89439 9.45971 7.89439 9.45971L8.01292 9.40779L8.12489 9.35875L7.97279 9.25705H8.38643L8.24587 9.13542L8.74232 8.69024C8.74232 8.69024 7.85301 9.11456 6.64224 7.7074Z" fill="#F6C540"/>
<path fill-rule="evenodd" clip-rule="evenodd" d="M7.77068 10.644L7.22374 9.68508C7.22374 9.68508 6.50863 8.03627 6.50863 7.83609C6.50863 7.63591 6.22075 7.0431 6.22075 7.21518C6.22075 7.38726 6.22075 7.83609 6.22075 7.83609L7.42729 10.5542V10.7684H7.58978L7.77068 10.644Z" fill="#F6C540"/>
<path d="M12.1512 9.35308L12.2344 9.07688L13.2506 9.38303L13.1673 9.65923L12.1512 9.35308Z" fill="#F6C540"/>
<path d="M12.6924 8.85022L12.9672 8.94017L12.6987 9.80143L12.424 9.71148L12.6924 8.85022Z" fill="#F6C540"/>
<path fill-rule="evenodd" clip-rule="evenodd" d="M12.9483 8.56941L12.8893 8.55595L12.8653 8.65096L12.7567 8.6243L12.7434 8.68229L12.8507 8.70864L12.8233 8.81693L12.8824 8.8304L12.9095 8.72308L13.0163 8.7493L13.0296 8.69132L12.9241 8.6654L12.9483 8.56941Z" fill="#F6C540"/>
<path fill-rule="evenodd" clip-rule="evenodd" d="M9.809 3.26402L9.83871 3.36765H9.92895L9.95866 3.26402C10.0337 3.28662 10.1019 3.31234 10.1629 3.34105L10.165 3.31836C10.6474 3.36242 10.8977 3.56434 10.8709 3.91936C10.8487 4.21324 10.6999 4.3672 10.4519 4.36326V4.58277C10.4519 4.58277 10.0481 4.73779 9.84615 4.73779C9.64422 4.73779 9.24038 4.58277 9.24038 4.58277V4.35954C9.03614 4.33429 8.91418 4.18323 8.89424 3.91936C8.86741 3.56434 9.11774 3.36242 9.60013 3.31836L9.60234 3.34218C9.66401 3.31301 9.73293 3.28691 9.809 3.26402ZM9.29831 4.16669C9.27112 4.17431 9.25201 4.17992 9.24424 4.18223C9.13349 4.16146 9.07943 4.07296 9.06687 3.90672C9.05416 3.73866 9.13313 3.62173 9.31931 3.55429C9.19229 3.71687 9.18297 3.92367 9.29831 4.16669ZM9.47027 4.1219C9.57206 4.09744 9.68982 4.07313 9.78416 4.06477V3.4581C9.39677 3.59406 9.30371 3.80204 9.47027 4.1219ZM9.95724 4.07023C10.0871 4.08725 10.2447 4.12625 10.3466 4.15368L10.2955 4.12549C10.4684 3.79648 10.3681 3.58537 9.95724 3.44915V4.07023ZM10.4493 3.55557C10.5789 3.72246 10.5848 3.93581 10.4595 4.187C10.6121 4.18929 10.6836 4.10121 10.6983 3.90672C10.7109 3.73971 10.633 3.6232 10.4493 3.55557Z" fill="#F6C540"/>
<path fill-rule="evenodd" clip-rule="evenodd" d="M9.84615 3.44945C9.95767 3.44945 10.0481 3.35905 10.0481 3.24753C10.0481 3.13601 9.95767 3.04561 9.84615 3.04561C9.73463 3.04561 9.64423 3.13601 9.64423 3.24753C9.64423 3.35905 9.73463 3.44945 9.84615 3.44945Z" fill="#3D58DB"/>
<path fill-rule="evenodd" clip-rule="evenodd" d="M9.87428 2.8114L9.81371 2.81263L9.81341 2.91063L9.70163 2.91102L9.70271 2.97051L9.81322 2.97012L9.81287 3.08181L9.87344 3.08059L9.87378 2.9699L9.98375 2.96951L9.98266 2.91002L9.87397 2.91041L9.87428 2.8114Z" fill="#F6C540"/>
<path fill-rule="evenodd" clip-rule="evenodd" d="M8.72116 6.47466C8.72116 6.47466 9.43221 6.34048 9.81731 6.34048C10.163 6.34048 10.9135 6.47466 10.9135 6.47466C10.9135 7.32469 11.1527 7.8451 10.9135 8.42568C10.6743 9.00625 10.0897 8.72717 9.82511 9.28275C9.48698 8.75577 9.03033 9.04584 8.72116 8.29545C8.41199 7.54506 8.90912 7.19945 8.72116 6.47466Z" fill="#1E5E91"/>
<mask id="mask1_270_60910" style="mask-type:luminance" maskUnits="userSpaceOnUse" x="8" y="6" width="4" height="4">
<path fill-rule="evenodd" clip-rule="evenodd" d="M8.72116 6.47466C8.72116 6.47466 9.43221 6.34048 9.81731 6.34048C10.163 6.34048 10.9135 6.47466 10.9135 6.47466C10.9135 7.32469 11.1527 7.8451 10.9135 8.42568C10.6743 9.00625 10.0897 8.72717 9.82511 9.28275C9.48698 8.75577 9.03033 9.04584 8.72116 8.29545C8.41199 7.54506 8.90912 7.19945 8.72116 6.47466Z" fill="white"/>
</mask>
<g mask="url(#mask1_270_60910)">
<rect x="8.72116" y="8.24831" width="2.19231" height="1.06419" fill="#5EAA22"/>
<path fill-rule="evenodd" clip-rule="evenodd" d="M9.36934 6.89356C9.28556 6.71552 9.80953 6.69481 9.80953 6.69481C9.80953 6.69481 9.92252 6.89356 9.80953 7.17636C9.72736 7.38203 9.86441 7.36369 10.0535 7.33839C10.1244 7.3289 10.2026 7.31843 10.2794 7.31843C10.3969 7.31843 10.4588 7.30981 10.5102 7.32911C10.5818 7.35601 10.633 7.43715 10.7861 7.67143C10.8561 7.7784 10.853 7.84885 10.8108 7.89097C10.8145 7.9998 10.696 8.09001 10.4771 8.14775L10.4484 8.03325C10.5641 8.0027 10.635 7.97349 10.668 7.9412C10.503 7.95125 10.2794 7.86971 10.2794 7.76494C10.2794 7.61001 9.75129 7.64264 9.43349 7.66227C9.35254 7.66727 9.28524 7.67143 9.24378 7.67143C9.05895 7.67143 9.20067 7.44555 9.32963 7.24C9.34314 7.21847 9.3565 7.19716 9.36934 7.17636C9.43558 7.06904 9.45706 7.04164 9.45192 7.02082C9.44655 6.99908 9.41214 6.9845 9.36934 6.89356ZM10.6263 6.86599C10.3097 6.81575 10.1321 6.86436 10.1321 7.04148C10.1321 7.21008 10.3006 7.28319 10.6089 7.28206C10.6209 7.28597 10.6314 7.28983 10.6404 7.29357C10.6289 7.29902 10.6148 7.3048 10.5983 7.31075L10.6366 7.42229C10.8309 7.35222 10.8309 7.22753 10.6342 7.16631L10.6258 7.16369L10.617 7.16377C10.3608 7.16589 10.2475 7.11783 10.2475 7.04148C10.2475 6.97202 10.355 6.94259 10.6086 6.98284L10.6263 6.86599Z" fill="#F6C540"/>
</g>
</g>
</g>
<defs>
<clipPath id="clip0_270_60910">
<rect width="20" height="15" fill="white"/>
</clipPath>
</defs>
</svg>

<svg width="24" height="24" viewbox="0 0 20 15" fill="none" xmlns="http://www.w3.org/2000/svg">
  <mask id="a" maskUnits="userSpaceOnUse" x="0" y="0" width="20" height="15">
    <path fill="#fff" d="M0 0h20v15H0z"/>
  </mask>
  <g mask="url(#a)">
    <path fill-rule="evenodd" clip-rule="evenodd" d="M0 0h20v15H0V0z" fill="#E8AA00"/>
    <path fill-rule="evenodd" clip-rule="evenodd" d="M2 2h16v11H2V2z" fill="#C51918"/>
    <mask id="b" maskUnits="userSpaceOnUse" x="2" y="2" width="16" height="11">
      <path fill-rule="evenodd" clip-rule="evenodd" d="M2 2h16v11H2V2z" fill="#fff"/>
    </mask>
    <g mask="url(#b)">
      <path fill-rule="evenodd" clip-rule="evenodd" d="M12.644 9.845a.467.467 0 00.462-.473.467.467 0 00-.462-.473.467.467 0 00-.461.473c0 .26.206.473.461.473z" fill="#1E5E91"/>
      <path fill-rule="evenodd" clip-rule="evenodd" d="M6.642 7.707c-1.21-1.407.525-3.849.525-3.849s.26 1.459 1.22 2.44c0 .07-.091.173-.183.277a1.36 1.36 0 00-.164.209c-.084.153.206.24.346.24.064 0 .098.092.13.175.038.101.072.19.146.078.135-.202-.135-.647-.135-.647l.428-.45.144-.292h-.144v-.3l-.102.084s-.11-.268-.326-.268c-.214 0-.281-.123-.281-.123h.281c.141 0-.022-.187-.14-.284-.054-.044-.134-.029-.207-.015-.09.017-.167.031-.167-.069 0-.11.085-.124.184-.14a.445.445 0 00.19-.063c.091-.066.215-.046.35-.024.07.012.144.024.218.024h.348c.125 0-.204.203-.204.203l.204.181.303.31-.152.09.313.302s-.106.173 0 .173c.043 0 .072.036.09.078.02-.042.048-.078.092-.078.106 0 0-.173 0-.173l.312-.303-.151-.09.303-.309.203-.18s-.329-.204-.203-.204h.348c.073 0 .147-.012.218-.024.134-.022.258-.042.35.024.056.04.126.052.19.063.098.016.184.03.184.14 0 .1-.078.086-.167.069-.073-.014-.154-.029-.207.015-.118.097-.282.284-.14.284h.28s-.066.123-.28.123c-.216 0-.327.268-.327.268l-.101-.083v.3h-.145l.145.29.427.451s-.27.445-.135.647c.075.111.108.023.147-.078.031-.083.066-.174.13-.174.14 0 .43-.088.345-.241-.035-.063-.1-.137-.163-.21-.092-.103-.183-.206-.183-.276.96-.981 1.22-2.44 1.22-2.44s1.735 2.442.524 3.85c-1.21 1.407-2.1.982-2.1.982l.497.445-.14.122h.413l-.152.102.112.049.118.052s-.32.235 0 .235l.16-.003c.06-.002.121-.004.184-.004.016 0-.021-.092-.058-.183-.037-.09-.073-.18-.057-.179.035.002.103.084.17.166.055.065.11.131.147.156.025.017.12-.016.208-.047.075-.026.144-.05.162-.041.074.037.055.113.037.185a.69.69 0 00-.012.055c-.003.016.092-.046.192-.111.105-.068.216-.14.224-.13a.372.372 0 00.006.008c.036.043.093.112-.332.44 0 .063.003.114.004.156.006.134.008.168-.083.168-.04 0-.097.02-.163.044-.168.06-.395.14-.56-.043-.229-.255-.58-.637-.58-.637v.187l-.417-.422-.08.235-.56-.644-.152.084s.516 1.424.792 1.434c.137.005-.07.138-.347.314-.279.179-.627.401-.757.58-.039.053-.068-.028-.091-.204-.023.176-.053.257-.091.204-.13-.179-.479-.401-.758-.58-.276-.176-.484-.31-.347-.314.276-.01.792-1.434.792-1.434l-.151-.084-.56.644-.08-.235-.417.422v-.187s-.352.382-.58.636c-.166.184-.393.103-.56.044-.066-.023-.123-.043-.163-.043-.145 0-.193-.202 0-.45.162-.208.5-.198.792-.19l.16.003c.319 0 0-.235 0-.235l.118-.052.112-.05-.152-.101h.413l-.14-.122.496-.445s-.889.425-2.1-.983z" fill="#F6C540"/>
      <path fill-rule="evenodd" clip-rule="evenodd" d="M7.77 10.644l-.546-.959s-.715-1.649-.715-1.849c0-.2-.288-.793-.288-.62v.62l1.206 2.718v.214h.163l.18-.124z" fill="#F6C540"/>
      <path d="M12.151 9.353l.083-.276 1.017.306-.084.276-1.016-.306z" fill="#F6C540"/>
      <path d="M12.692 8.85l.275.09-.268.861-.275-.09.268-.86z" fill="#F6C540"/>
      <path fill-rule="evenodd" clip-rule="evenodd" d="M12.948 8.57l-.059-.014-.024.095-.108-.027-.014.058.108.027-.028.108.06.013.027-.107.106.026.014-.058-.106-.026.024-.096zM9.809 3.264l.03.104h.09l.03-.104c.075.023.143.048.204.077l.002-.023c.482.044.733.246.706.601-.022.294-.171.448-.42.444v.22s-.403.155-.605.155c-.202 0-.606-.155-.606-.155V4.36c-.204-.026-.326-.177-.346-.44-.027-.356.224-.558.706-.602l.002.024c.062-.029.13-.055.207-.078zm-.51.903a3.753 3.753 0 00-.055.015c-.11-.02-.165-.109-.177-.275-.013-.168.066-.285.252-.353-.127.163-.136.37-.02.613zm.171-.045a2.34 2.34 0 01.314-.057v-.607c-.387.136-.48.344-.314.664zm.487-.052c.13.017.288.056.39.084l-.051-.029c.172-.329.072-.54-.339-.676v.621zm.492-.514c.13.166.136.38.01.631.153.002.225-.086.24-.28.012-.167-.066-.284-.25-.351z" fill="#F6C540"/>
      <path fill-rule="evenodd" clip-rule="evenodd" d="M9.846 3.45a.202.202 0 100-.404.202.202 0 000 .403z" fill="#3D58DB"/>
      <path fill-rule="evenodd" clip-rule="evenodd" d="M9.874 2.811l-.06.002v.098h-.112v.06h.111v.11h.06V2.97h.11v-.06h-.109v-.099z" fill="#F6C540"/>
      <path fill-rule="evenodd" clip-rule="evenodd" d="M8.721 6.475s.711-.135 1.096-.135c.346 0 1.097.135 1.097.135 0 .85.239 1.37 0 1.95-.24.581-.824.302-1.089.858-.338-.527-.795-.237-1.104-.988-.309-.75.188-1.096 0-1.82z" fill="#1E5E91"/>
      <mask id="c" maskUnits="userSpaceOnUse" x="8" y="6" width="4" height="4">
        <path fill-rule="evenodd" clip-rule="evenodd" d="M8.721 6.475s.711-.135 1.096-.135c.346 0 1.097.135 1.097.135 0 .85.239 1.37 0 1.95-.24.581-.824.302-1.089.858-.338-.527-.795-.237-1.104-.988-.309-.75.188-1.096 0-1.82z" fill="#fff"/>
      </mask>
      <g mask="url(#c)">
        <path fill="#5EAA22" d="M8.721 8.248h2.192v1.064H8.721z"/>
        <path fill-rule="evenodd" clip-rule="evenodd" d="M9.37 6.894c-.084-.178.44-.2.44-.2s.113.2 0 .482c-.083.206.054.188.243.162.071-.01.15-.02.226-.02.118 0 .18-.008.231.011.072.027.123.108.276.342.07.107.067.178.025.22.004.109-.115.199-.334.257l-.029-.115c.116-.03.187-.06.22-.092-.165.01-.389-.071-.389-.176 0-.155-.528-.122-.846-.103-.08.005-.148.01-.19.01-.184 0-.042-.226.087-.432l.04-.064c.066-.107.087-.134.082-.155-.005-.022-.04-.037-.083-.127zm1.256-.028c-.316-.05-.494-.002-.494.175 0 .17.169.242.477.241a.43.43 0 01.031.012.48.48 0 01-.042.017l.039.111c.194-.07.194-.194-.003-.256l-.008-.002h-.009c-.256.002-.37-.046-.37-.123 0-.069.108-.098.362-.058l.017-.117z" fill="#F6C540"/>
      </g>
    </g>
  </g>
</svg>
